icons/svg/seamark/light_major_small.svg

<?xml version="1.0" encoding="UTF-8" standalone="no"?>
<svg
   xmlns:dc="http://purl.org/dc/elements/1.1/"
   xmlns:cc="http://creativecommons.org/ns#"
   xmlns:rdf="http://www.w3.org/1999/02/22-rdf-syntax-ns#"
   xmlns:svg="http://www.w3.org/2000/svg"
   xmlns="http://www.w3.org/2000/svg"
   xmlns:sodipodi="http://sodipodi.sourceforge.net/DTD/sodipodi-0.dtd"
   xmlns:inkscape="http://www.inkscape.org/namespaces/inkscape"
   width="1060"
   height="1060"
   id="svg2"
   version="1.1"
   inkscape:version="0.48.4 r9939"
   sodipodi:docname="light_major_small.svg">
  <defs
     id="defs13">
    <inkscape:path-effect
       effect="gears"
       id="path-effect3774"
       is_visible="true"
       teeth="6"
       phi="-1.2" />
    <inkscape:path-effect
       effect="bend_path"
       id="path-effect3772"
       is_visible="false"
       bendpath="m 95.790098,316.51174 c 144.429032,-206.42506 223.313032,-11.7428 339.548092,0"
       prop_scale="1.19"
       scale_y_rel="false"
       vertical="false"
       bendpath-nodetypes="cc" />
  </defs>
  <sodipodi:namedview
     pagecolor="#ffffff"
     bordercolor="#666666"
     borderopacity="1"
     objecttolerance="10"
     gridtolerance="10"
     guidetolerance="10"
     inkscape:pageopacity="0"
     inkscape:pageshadow="2"
     inkscape:window-width="1920"
     inkscape:window-height="1004"
     id="namedview11"
     showgrid="false"
     inkscape:zoom="0.5754386"
     inkscape:cx="259.42038"
     inkscape:cy="683.38518"
     inkscape:window-x="1680"
     inkscape:window-y="0"
     inkscape:window-maximized="1"
     inkscape:current-layer="svg2" />
  <metadata
     id="metadata2975">image/svg+xmlen<rdf:RDF>
  <cc:Work
     rdf:about="">
    <dc:format>image/svg+xml</dc:format>
    <dc:type
       rdf:resource="http://purl.org/dc/dcmitype/StillImage" />
    <dc:title />
  </cc:Work>
</rdf:RDF>
</metadata>
  <path
     style="opacity:0.42608696;color:#000000;fill:#acd8f3;fill-opacity:1;fill-rule:nonzero;stroke:#a35151;stroke-width:0;stroke-linecap:round;stroke-linejoin:miter;stroke-miterlimit:4;stroke-opacity:1;stroke-dashoffset:0;marker:none;visibility:visible;display:inline;overflow:visible;enable-background:accumulate"
     d="m 530.93388,123.44427 c -8.94137,0.30114 -17.76881,3.39413 -24.94286,8.73936 -7.17407,5.3452 -12.66293,12.91903 -15.50933,21.40053 l -74.71703,222.7449 -235.02587,-2.24992 c -9.26492,-0.0879 -18.53473,2.82716 -26.082,8.20175 -7.54724,5.37454 -13.33349,13.18132 -16.28053,21.9655 -2.94699,8.78423 -3.03969,18.50109 -0.26094,27.33994 2.77879,8.83887 8.41503,16.75459 15.85835,22.27222 l 188.76128,139.87177 -74.81077,222.79177 c -2.94345,8.78274 -3.03394,18.49673 -0.25445,27.3328 2.77931,8.83599 8.41431,16.74912 15.8554,22.26544 7.44113,5.51634 16.65051,8.6078 25.91291,8.69867 9.26238,0.0909 18.5306,-2.81935 26.07854,-8.18867 L 526.99651,730.32096 715.71096,870.28649 c 7.44336,5.50739 16.65147,8.59015 25.91039,8.67463 9.25891,0.0847 18.52167,-2.82979 26.06432,-8.20046 7.54263,-5.37062 13.32677,-13.17031 16.27592,-21.94746 2.94916,-8.77708 3.04834,-18.48696 0.27931,-27.32249 L 713.83607,597.38652 905.31605,461.07712 c 7.55409,-5.37083 13.34763,-13.17705 16.30032,-21.96297 2.95265,-8.78588 3.04935,-18.50664 0.27221,-27.34949 -2.77732,-8.84293 -8.41438,-16.76287 -15.8601,-22.28297 -7.44574,-5.52008 -16.66216,-8.61214 -25.9305,-8.69957 L 645.02525,378.53214 574.62061,154.38102 c -2.87606,-9.14019 -8.81338,-17.28792 -16.63319,-22.82554 -7.81983,-5.53768 -17.47666,-8.43301 -27.0533,-8.11121 z m -0.698,346.92416 c 34.7555,0 61.50391,26.74844 61.50391,61.5039 0,34.75552 -26.74841,61.50398 -61.50391,61.50398 -34.7555,0 -61.50398,-26.74846 -61.50398,-61.50398 0,-34.75546 26.74848,-61.5039 61.50398,-61.5039 z"
     id="path3825"
     inkscape:connector-curvature="0"
     sodipodi:nodetypes="sscccssscccssscccssscccssscccscssssss"
     inkscape:transform-center-y="-33.421597"
     inkscape:transform-center-x="4.0662547e-05" />
  <path
     d="M 532.12575,209.19519 457.76119,430.88911 223.90652,428.64356 411.74265,567.83652 337.29059,789.55953 527.83886,653.92443 715.61669,793.20492 645.53899,570.16956 836.08726,434.53441 602.23257,432.2889 z m -2.12887,230.28621 c 50.57102,0 91.58112,41.01011 91.58112,91.58113 0,50.57105 -41.0101,91.58114 -91.58112,91.58114 -50.57102,0 -91.58112,-41.01009 -91.58112,-91.58114 0,-50.57102 41.0101,-91.58113 91.58112,-91.58113 z"
     id="polygon7"
     inkscape:connector-curvature="0"
     sodipodi:nodetypes="cccccccccccsssss"
     inkscape:transform-center-x="0.0031320711"
     inkscape:transform-center-y="-33.413028" />
</svg>

<svg width="1060" height="1060" viewBox="0 0 1060 1060" fill="none" xmlns="http://www.w3.org/2000/svg">
<path opacity="0.426087" d="M530.934 123.444C521.993 123.745 513.165 126.838 505.991 132.183C498.817 137.529 493.328 145.103 490.482 153.584L415.765 376.329L180.739 374.079C171.474 373.991 162.204 376.906 154.657 382.281C147.11 387.655 141.323 395.462 138.376 404.246C135.429 413.031 135.337 422.747 138.115 431.586C140.894 440.425 146.53 448.341 153.974 453.858L342.735 593.73L267.924 816.522C264.981 825.305 264.89 835.019 267.67 843.855C270.449 852.691 276.084 860.604 283.525 866.12C290.966 871.637 300.176 874.728 309.438 874.819C318.701 874.91 327.969 872 335.517 866.63L526.997 730.321L715.711 870.286C723.154 875.794 732.362 878.877 741.621 878.961C750.88 879.046 760.143 876.131 767.686 870.761C775.228 865.39 781.013 857.59 783.962 848.813C786.911 840.036 787.01 830.326 784.241 821.491L713.836 597.386L905.316 461.077C912.87 455.706 918.664 447.9 921.616 439.114C924.569 430.328 924.666 420.607 921.889 411.765C919.111 402.922 913.474 395.002 906.029 389.482C898.583 383.961 889.366 380.869 880.098 380.782L645.025 378.532L574.621 154.381C571.745 145.241 565.807 137.093 557.988 131.555C550.168 126.018 540.511 123.122 530.934 123.444H530.934ZM530.236 470.368C564.991 470.368 591.74 497.117 591.74 531.872C591.74 566.628 564.991 593.376 530.236 593.376C495.48 593.376 468.732 566.628 468.732 531.872C468.732 497.117 495.48 470.368 530.236 470.368V470.368Z" fill="#ACD8F3"/>
<path d="M532.126 209.195L457.761 430.889L223.907 428.644L411.743 567.837L337.291 789.56L527.839 653.925L715.617 793.205L645.539 570.17L836.088 434.535L602.233 432.289L532.126 209.195ZM529.997 439.482C580.568 439.482 621.578 480.492 621.578 531.063C621.578 581.634 580.568 622.644 529.997 622.644C479.426 622.644 438.416 581.634 438.416 531.063C438.416 480.492 479.426 439.482 529.997 439.482V439.482Z" fill="black"/>
</svg>
